svg/700/outlined/female-fill.svg

<svg xmlns="http://www.w3.org/2000/svg" width="48" height="48" viewBox="0 -960 960 960"><path d="M433-92v-80h-80v-88h80v-89q-83-16-136.5-81.206T243-580q0-98.931 69.484-167.966Q381.968-817 480-817t167.516 69.034Q717-678.931 717-580q0 84.588-53.5 149.794Q610-365 527-349v89h80v88h-80v80h-94Zm46.798-345Q540-437 581.5-478.298t41.5-101.5Q623-640 581.702-681.5t-101.5-41.5Q420-723 378.5-681.702t-41.5 101.5Q337-520 378.298-478.5t101.5 41.5Z"/></svg>

<svg xmlns="http://www.w3.org/2000/svg" width="48" height="48" viewBox="0 -960 960 960"><path d="M433-92v-80h-80v-88h80v-89q-83-16-136.5-81.21Q243-495.41 243-580q0-98.93 69.48-167.97Q381.97-817 480-817q98.03 0 167.52 69.03Q717-678.93 717-580q0 84.59-53.5 149.79Q610-365 527-349v89h80v88h-80v80h-94Zm46.8-345q60.2 0 101.7-41.3T623-579.8q0-60.2-41.3-101.7T480.2-723q-60.2 0-101.7 41.3T337-580.2q0 60.2 41.3 101.7T479.8-437Z"/></svg>
